X: 51
T: Sonata in A major, L.342, K.220
C: Domenico Scarlatti
%%abc-version 2.0
%%abcx-abcm2ps-target-version 5.9.1 (29 Sep 2008)
%%abc-creator hum2abc beta
%%abcx-conversion-date 2021/06/28 10:15:41
%%abc-copyright 2021 Craig Stuart Sapp
%%abc-edited-by Craig Stuart Sapp
%%abc-edited-by Craig Stuart Sapp
%%abcx-initial-encoding-date 2004/11/03
%%humdrum-veritas 2825848777
%%humdrum-veritas-data 581727686
%%linebreak <none>
%%barnumbers 0
L: 1/8
M: 3/8
N: Derived from L342K220.krn
Q: "Allegro ([quarter-dot]=80)" 3/8=88
%%staves {1 2}
V: 1 clef=treble
V: 2 clef=bass
K: A
[V:1] z .a.[ce] | 
[V:2] A,, z z | 
[V:1] [ce][df].[Bd] | 
[V:2] z3 | 
[V:1] [Bd][ce].[Ac] | 
[V:2] z3 | 
[V:1] [Ac][Bd].[EB] | 
[V:2] z3 | 
[V:1] c2z | 
[V:2] z .A.[CE] | 
[V:1] z z !tenuto!f- | 
[V:2] [CE][DF].[B,D] | 
[V:1] f!tenuto!e2- | 
[V:2] [B,D][CE].[A,C] | 
[V:1] e{/d/}!trill!d3/c//d// | 
[V:2] [A,C][B,D].[E,B,] | 
[V:1] ca.f & c2d | 
[V:2] [A,,2A,2][D,D]- | 
[V:1] .dBe & BG2 | 
[V:2] [D,D][E,2E2] | 
[V:1] ca.f & c2d | 
[V:2] [A,,2A,2][D,D]- | 
[V:1] .dBe & BG2 | 
[V:2] [D,D][E,2E2] | 
[V:1] cA.F | 
[V:2] z z D- | 
[V:1] .d!trill!d3/c//d// | 
[V:2] xB,2 & [B,D] G,E, | 
[V:1] cA.F | 
[V:2] .A, z D- | 
[V:1] .d!trill!d3/c//d// | 
[V:2] xB,2 & [B,D] G,E, | 
[V:1] c2.a | 
[V:2] A,B,C | 
[V:1] {/g/} fe/d/c/B/ | 
[V:2] DE.E, | 
[V:1] c.d.e | 
[V:2] A,3 & .A,,.B,,.C, | 
[V:1] d/c/B/A/G/F/ | 
[V:2] .D,.D,.^D, | 
[V:1] !mordent!E3 ||  
[V:2] E,3 ||  
[V:1]  [K:C] z3 | 
[V:2]  [K:C] E,[E,E].[E,E] | 
[V:1] z {/fg}a2- | 
[V:2] [F,E][F,D].[F,C] | 
[V:1] a(3:2:6g/f/e/!beambr1!f/e/d/ | 
[V:2] .[G,C].[G,C].[G,B,] | 
[V:1] .e z z | 
[V:2] .[C,C].[F,F].[F,F] | 
[V:1] z {/ga}_b2- | 
[V:2] [G,F][G,E].[G,D] | 
[V:1] b(3:2:6a/g/f/!beambr1!g/f/e/ | 
[V:2] .[A,D].[A,D].[A,^C] | 
[V:1] .f z z | 
[V:2] .[D,D].[G,G].[G,G] | 
[V:1] z {/ab}c'2- | 
[V:2] [A,G][A,^F].[A,E] | 
[V:1] c'(3:2:6b/a/^g/!beambr1!a/g/^f/ | 
[V:2] .[B,E].[B,E].[B,^D] | 
[V:1] ^g/a/b/a/b/e/ | 
[V:2] E,2E- & E,3 | 
[V:1] d/e/f/e/f/A/ | 
[V:2] ED2 & F,3 | 
[V:1] ^G/A/B/A/B/E/ | 
[V:2] E,,2E,- & E,,3 | 
[V:1] D/E/F/E/F/A,/ | 
[V:2] E,D,2 & F,,3 | 
[V:1] {/A,/} !mordent!^G,>^F,E, | 
[V:2] E,,3 | 
[V:1] z .e.c | 
[V:2] E,/^F,/^G,/A,/B,/C/ | 
[V:1] Bdc | 
[V:2] D/E/=F/E/D/C/ | 
[V:1] .B!trill!c3/B//c// | 
[V:2] B,/A,/^G,/^F,/E,/D,/ | 
[V:1] Be.c | 
[V:2] E,/^F,/^G,/A,/B,/C/ | 
[V:1] Bd.c | 
[V:2] D/E/=F/E/D/C/ | 
[V:1] .B!trill!c3/B//c// | 
[V:2] B,/A,/^G,/^F,/E,/D,/ | 
[V:1] B/A/^G/A/B/c/ | 
[V:2] [E,^G,B,]!tenuto![E,G,B,].[E,G,B,] | 
[V:1] d/e/f/e/d/c/ | 
[V:2] [D,A,B,][D,A,B,][D,A,B,] | 
[V:1] B/A/^G/^F/E/^D/ | 
[V:2] [D,A,B,][D,A,B,][D,A,B,] | 
[V:1] E/^F/^G/A/B/c/ | 
[V:2] [E,^G,B,][E,G,B,][E,G,B,] | 
[V:1] d/e/=f/e/d/c/ | 
[V:2] [D,A,B,][D,A,B,][D,A,B,] | 
[V:1] B/A/^G/^F/E/^D/ | 
[V:2] [D,A,B,][D,A,B,][D,A,B,] | 
[V:1] E/^F/^G/A/B/c/ | 
[V:2] [E,^G,B,][E,G,B,][E,G,B,] | 
[V:1] d/e/=f/g/a/b/ | 
[V:2] [D,F,=G,B,][D,F,G,B,][D,F,G,B,] | 
[V:1] c'/b/a/g/f/e/ | 
[V:2] .C,.D,.E, | 
[V:1] d/c/B/A/G/F/ | 
[V:2] F,G,.G,, | 
[V:1] E2z | 
[V:2] .C,.[C,C].[C,C] | 
[V:1] z !trill!^f3/e//f// | 
[V:2] [D,C][D,B,].[D,A,] | 
[V:1] g2z | 
[V:2] G,[D,D].[D,D] | 
[V:1] z !trill!^g3/^f//g// | 
[V:2] [E,D][E,C].[E,B,] | 
[V:1] a2z | 
[V:2] A,[E,E].[E,E] | 
[V:1] z !trill!^a3/^g//a// | 
[V:2] [^F,E][F,^D].[F,^C] | 
[V:1] b/=a/=g/^f/e/^d/ | 
[V:2] ^D2z & B,B,B, | 
[V:1] =c/B/A/G/^F/E/ | 
[V:2] C2z & B,B,B, | 
[V:1] .^D.E.^F | 
[V:2] B,/A,/G,/^F,/E,/D,/ | 
[V:1] G2.A | 
[V:2] C,/B,,/A,,/G,,/^F,,/E,,/ | 
[V:1] {/A}B3 ||  
[V:2] B,,,3 ||  
[V:1]  [K:A] z {/F/} !trill!F3/E//F// | 
[V:2]  [K:A] B,C^D | 
[V:1] (3:2:6G/F/G/!beambr1!A/G/A/.B | 
[V:2] .E.F.G | 
[V:1] z {/F/} !trill!F3/E//F// | 
[V:2] B,C^D[K:clef=treble] | 
[V:1] (3:2:6G/F/G/!beambr1!A/G/A/!beambr1!(3B/A/B/ | 
[V:2] .E.F.G | 
[V:1] (3:2:6c/B/c/!beambr1!^d/c/d/!beambr1!(3e/d/e/ | 
[V:2] .A.B.c | 
[V:1] (3:2:6f/a/g/!beambr1!a/g/f/!beambr1!(3g/f/e/ | 
[V:2] ^dB.e | 
[V:1] (3:2:6a/g/f/!beambr1!g/f/e/!beambr1!(3f/e/^d/ | 
[V:2] .A.B[K:clef=bass].B, | 
[V:1] {/^d}e3 | 
[V:2] E,3 | 
[V:1] z {/F/} !trill!F3/E//F// | 
[V:2] B,C^D | 
[V:1] (3:2:6G/F/G/!beambr1!A/G/A/.B | 
[V:2] .E.F.G | 
[V:1] z {/F/} !trill!F3/E//F// | 
[V:2] B,C^D[K:clef=treble] | 
[V:1] (3:2:6G/F/G/!beambr1!A/G/A/!beambr1!(3B/A/B/ | 
[V:2] .E.FG | 
[V:1] (3:2:6c/B/c/!beambr1!^d/c/d/!beambr1!(3e/d/e/ | 
[V:2] .A.B.c | 
[V:1] (3:2:6f/a/g/!beambr1!a/g/f/!beambr1!(3g/f/e/ | 
[V:2] .^d.B.e | 
[V:1] (3:2:6a/g/f/g/f/e/(3f/e/^d/ | 
[V:2] AB[K:clef=bass].B, | 
[V:1] eb.B | 
[V:2] E,2.G, | 
[V:1] ce.F | 
[V:2] A,2.B, | 
[V:1] GB.B, | 
[V:2] E,2.G, | 
[V:1] cE.^D | 
[V:2] A,B,.B,, | 
[V:1] .E .b.B | 
[V:2] E,2.G, | 
[V:1] .ce.F | 
[V:2] A,2.B, | 
[V:1] GB.B, | 
[V:2] E,2.G, | 
[V:1] cE.^D | 
[V:2] A,B,.B,, | 
[V:1] E2z :|]|:  
[V:2] E,2z :|]|:  
[V:1]  [K:C] z3 | 
[V:2]  [K:C] E,.[E,E].[E,E] | 
[V:1] z {/FG}!sfz!A2- | 
[V:2] [F,E][F,D].[F,C] | 
[V:1] A(3:2:6G/F/E/!beambr1!F/E/D/ | 
[V:2] .[G,C].[G,C].[G,B,] | 
[V:1] .E z z | 
[V:2] C[F,F].[F,F] | 
[V:1] z {/GA}!sfz!_B2- | 
[V:2] [G,F][G,E].[G,D] | 
[V:1] B(3:2:6A/G/F/!beambr1!G/F/E/ | 
[V:2] .[A,D].[A,D].[A,^C] | 
[V:1] .F .a.f & x x d | 
[V:2] [D,2D2]D | 
[V:1] d2.e & _BG^c | 
[V:2] D2z & _B,G,.A, | 
[V:1] fa.f & d z .d | 
[V:2] [D,2D2].D | 
[V:1] d2.e & _BG.^c | 
[V:2] D2z & _B,G,.A, | 
[V:1] [d2f2]d- | 
[V:2] D,A.[DF] | 
[V:1] d2(3e/f/g/ | 
[V:2] D2^C & _B,G,A, | 
[V:1] (3f/e/d/d2- | 
[V:2] D,A.[DF] | 
[V:1] d2(3e/f/g/ | 
[V:2] D2.^C & _B,G,.A, | 
[V:1] xf2- & (3f/e/d/ f._A | 
[V:2] D,D.=C | 
[V:1] fe/d/c/B/ & !accent!G2x | 
[V:2] B,2.G, | 
[V:1] cg._e & x x .c | 
[V:2] [_A,3C3] | 
[V:1] c2.d & _AF.B | 
[V:2] C2x & _A,F,.G, | 
[V:1] _eg.e & c2.c | 
[V:2] C,3 | 
[V:1] c2.d & _AF.B | 
[V:2] C2x & _A,F,.G, | 
[V:1] [c2_e2]c- | 
[V:2] C,G.[C_E] | 
[V:1] c2(3d/_e/f/ | 
[V:2] C2.B, & _A,F,G, | 
[V:1] (3_e/d/c/c2- | 
[V:2] [C,C]G.[C_E] | 
[V:1] c2(3d/_e/f/ | 
[V:2] C2.B, & _A,F,.G, | 
[V:1] _efg- & c2_B | 
[V:2] C3 & C,D,._E, | 
[V:1] gf/_e/d/c/ & A3 | 
[V:2] F,G,.=A, | 
[V:1] d2f- & d/c/_B/A/G/F/ | 
[V:2] _B,3 & _B,,C,.D, | 
[V:1] f=e/d/c/_B/ & G3 | 
[V:2] =E,F,.G, | 
[V:1] c2e- & c/_B/A/G/F/E/ | 
[V:2] A,3 & A,,_B,,.C, | 
[V:1] ed/c/_B/A/ & F3 | 
[V:2] D,E,.F, | 
[V:1] _B2d- & _B/A/G/F/E/D/ | 
[V:2] G,3 & G,,A,,._B,, | 
[V:1] dc/_B/A/G/ & E3 | 
[V:2] C,D,.E, | 
[V:1] A/G/F/E/D/C/[K:clef=bass] | 
[V:2] F,3 & F,,G,,.A,, | 
[V:1] _B,/A,/G,/F,/E,/D,/ | 
[V:2] _B,,3 | 
[V:1] !mordent!C,3 | 
[V:2] C,,3 | 
[V:1] z3[K:clef=treble] | 
[V:2] .!sfz!C,.[C,C].[C,C] | 
[V:1] z !trill!^F3/E//F// | 
[V:2] [D,C][D,_B,].[D,A,] | 
[V:1] G2z | 
[V:2] G,[D,D].[D,D] | 
[V:1] z !trill!^G3/^F//G// | 
[V:2] [E,D][E,C].[E,=B,] | 
[V:1] A2z | 
[V:2] A,[F,F].[F,F] | 
[V:1] z !trill!B3/A//B// | 
[V:2] [G,F][G,E].[G,D] | 
[V:1] c2z | 
[V:2] C[G,G].[G,G] | 
[V:1] z !trill!^c3/B//c// | 
[V:2] [A,G][A,F].[A,E] | 
[V:1] d2z | 
[V:2] D[A,A].[A,A] | 
[V:1] z !trill!^d3/^c//d// | 
[V:2] [B,A][B,^G].[B,^F] | 
[V:1] e/=d/=c/B/A/^G/ | 
[V:2] EEE | 
[V:1] f/e/d/c/B/A/ | 
[V:2] =F2x & EE!accent!E | 
[V:1] .^G.A.B | 
[V:2] E/D/C/B,/A,/^G,/ | 
[V:1] c2.d | 
[V:2] A,/=G,/F,/E,/D,/C,/ | 
[V:1] {/d}e3 ||  
[V:2] E,,3 ||  
[V:1]  [K:A] z {/B,/} !trill!B,3/A,//B,// | 
[V:2]  [K:A] E,F,G, | 
[V:1] (3:2:6C/B,/C/!beambr1!D/C/D/.E | 
[V:2] .A,.B,.C | 
[V:1] z {/B,/} !trill!B,3/A,//B,// | 
[V:2] E,F,G, | 
[V:1] (3:2:6C/B,/C/!beambr1!D/C/D/!beambr1!(3E/D/E/ | 
[V:2] .A,.B,.C | 
[V:1] (3:2:6F/E/F/!beambr1!G/F/G/!beambr1!(3A/G/A/ | 
[V:2] .D.E.F[K:clef=treble] | 
[V:1] (3:2:6B/A/B/!beambr1!c/B/c/!beambr1!(3d/c/d/ | 
[V:2] .G.A.B | 
[V:1] (3:2:6e/d/e/!beambr1!f/e/f/!beambr1!(3g/f/g/ | 
[V:2] .c.d.e | 
[V:1] .a.f.d | 
[V:2] .f.d.B | 
[V:1] Bc.A | 
[V:2] GA.F[K:clef=bass] | 
[V:1] .F.D.B, | 
[V:2] .D.B,.G, | 
[V:1] (3:2:6C/B,/C/!beambr1!D/C/D/.E | 
[V:2] A,B,.C | 
[V:1] .[B,D].[A,C].[G,B,] | 
[V:2] .D,.E,.E,, | 
[V:1] {/B,}A,3 | 
[V:2] A,,3 | 
[V:1] z {/B,/} !trill!B,3/A,//B,// | 
[V:2] E,F,G, | 
[V:1] (3:2:6C/B,/C/!beambr1!D/C/D/.E | 
[V:2] A,.B,.C | 
[V:1] z {/B,/} !trill!B,3/A,//B,// | 
[V:2] E,F,G, | 
[V:1] (3:2:6C/B,/C/!beambr1!D/C/D/!beambr1!(3E/D/E/ | 
[V:2] A,.B,.C | 
[V:1] (3:2:6F/E/F/!beambr1!G/F/G/!beambr1!(3A/G/A/ | 
[V:2] .D.E.F[K:clef=treble] | 
[V:1] (3:2:6B/A/B/!beambr1!c/B/c/!beambr1!(3d/c/d/ | 
[V:2] .G.A.B | 
[V:1] (3:2:6e/d/e/!beambr1!f/e/f/!beambr1!(3g/f/g/ | 
[V:2] .c.d.e | 
[V:1] .a.f.d | 
[V:2] .f.d.B | 
[V:1] Bc.A | 
[V:2] GA.F[K:clef=bass] | 
[V:1] .F.D.B, | 
[V:2] .D.B,.G, | 
[V:1] (3:2:6C/B,/C/!beambr1!D/C/D/.E | 
[V:2] A,B,.C | 
[V:1] .[B,D].[A,C].[G,B,] | 
[V:2] .D,.E,.E,, | 
[V:1] Ee.E | 
[V:2] A,,B,,.C, | 
[V:1] [F2d2].[GB] | 
[V:2] D,E,.E,, | 
[V:1] [Ac]a.E | 
[V:2] A,,B,,.C, | 
[V:1] [F2d2].[GB] | 
[V:2] D,E,.E,, | 
[V:1] .[Ac] .c'.E | 
[V:2] A,,B,,.C, | 
[V:1] [F2d2].[GB] | 
[V:2] D,E,.E,, | 
[V:1] (3:2:6c/B/c/!beambr1!d/c/d/e | 
[V:2] A,B,.C | 
[V:1] .[Bd].[Ac].[GB] | 
[V:2] .D.E.E, | 
[V:1] (3:2:6C/B,/C/!beambr1!D/C/D/.E | 
[V:2] A,,B,,.C, | 
[V:1] {/E} .[B,D].[A,C].[G,B,] | 
[V:2] .D,.E,.E,, | 
[V:1] A,2z :|]  
[V:2] A,,2z :|]  


